X: 2
T:Maggie in the 
T:Knocknaborough Polka
R:Polka
C:Trad
M:C|
L:1/8
K:D
|:G2D2 G3A|B2d2 e4|d2B2 BAGA|B2A2 A4|
G2D2 G3A|B2d2 e4|d2B2 A2BA|G4 G4:|
|:g2f2 e2d2|e2f2 g2e2|d2B2 BAGA|B2A2 A4|
g2f2 e2d2|e2f2 g2e2|d2B2 A2BA|G4 G4:|
